svgs/duotone/clipboard-list.svg

<svg xmlns="http://www.w3.org/2000/svg" viewBox="0 0 384 512"><!-- Font Awesome Pro 6.0.0-alpha2 by @fontawesome - https://fontawesome.com License - https://fontawesome.com/license (Commercial License) --><defs><style>.fa-secondary{opacity:.4}</style></defs><path d="M336 64H256C291.346 64 320 92.652 320 128V144C320 152.836 312.836 160 304 160H80C71.164 160 64 152.836 64 144V128C64 92.652 92.654 64 128 64H48C21.49 64 0 85.49 0 112V464C0 490.51 21.49 512 48 512H336C362.51 512 384 490.51 384 464V112C384 85.49 362.51 64 336 64ZM96 392C82.75 392 72 381.25 72 368S82.75 344 96 344S120 354.75 120 368S109.25 392 96 392ZM96 296C82.75 296 72 285.25 72 272S82.75 248 96 248S120 258.75 120 272S109.25 296 96 296ZM304 384H176C167.199 384 160 376.799 160 368C160 359.199 167.199 352 176 352H304C312.801 352 320 359.199 320 368C320 376.799 312.801 384 304 384ZM304 288H176C167.199 288 160 280.799 160 272C160 263.199 167.199 256 176 256H304C312.801 256 320 263.199 320 272C320 280.799 312.801 288 304 288Z" class="fa-secondary"/><path d="M256 64C256 28.652 227.346 0 192 0S128 28.652 128 64C92.654 64 64 92.652 64 128V144C64 152.836 71.164 160 80 160H304C312.836 160 320 152.836 320 144V128C320 92.652 291.346 64 256 64ZM192 88C178.746 88 168 77.254 168 64C168 50.744 178.746 40 192 40S216 50.744 216 64C216 77.254 205.254 88 192 88ZM96 344C82.75 344 72 354.75 72 368S82.75 392 96 392S120 381.25 120 368S109.25 344 96 344ZM96 248C82.75 248 72 258.75 72 272S82.75 296 96 296S120 285.25 120 272S109.25 248 96 248Z" class="fa-primary"/></svg>

<svg xmlns="http://www.w3.org/2000/svg" viewBox="0 0 384 512"><!--! Font Awesome Pro 6.0.0-alpha3 by @fontawesome - https://fontawesome.com License - https://fontawesome.com/license (Commercial License) --><defs><style>.fa-secondary{opacity:.4}</style></defs><path class="fa-primary" d="M256 64c0-35.35-28.65-64-64-64S128 28.65 128 64C92.65 64 64 92.65 64 128v16C64 152.8 71.16 160 80 160h224C312.8 160 320 152.8 320 144V128C320 92.65 291.3 64 256 64zM192 88C178.7 88 168 77.25 168 64c0-13.26 10.75-24 24-24S216 50.74 216 64C216 77.25 205.3 88 192 88zM96 344c-13.25 0-24 10.75-24 24S82.75 392 96 392s24-10.75 24-24S109.3 344 96 344zM96 248c-13.25 0-24 10.75-24 24S82.75 296 96 296S120 285.3 120 272S109.3 248 96 248z"/><path class="fa-secondary" d="M336 64H256c35.35 0 64 28.65 64 64v16C320 152.8 312.8 160 304 160h-224C71.16 160 64 152.8 64 144V128c0-35.35 28.65-64 64-64H48C21.49 64 0 85.49 0 112v352C0 490.5 21.49 512 48 512h288c26.51 0 48-21.49 48-48v-352C384 85.49 362.5 64 336 64zM96 392c-13.25 0-24-10.75-24-24S82.75 344 96 344s24 10.75 24 24S109.3 392 96 392zM96 296c-13.25 0-24-10.75-24-24S82.75 248 96 248S120 258.8 120 272S109.3 296 96 296zM304 384h-128C167.2 384 160 376.8 160 368C160 359.2 167.2 352 176 352h128c8.801 0 16 7.199 16 16C320 376.8 312.8 384 304 384zM304 288h-128C167.2 288 160 280.8 160 272C160 263.2 167.2 256 176 256h128C312.8 256 320 263.2 320 272C320 280.8 312.8 288 304 288z"/></svg>
